public/livestock/pig.svg

<svg fill="none" height="179" viewBox="0 0 178 179" width="178" xmlns="http://www.w3.org/2000/svg" xmlns:xlink="http://www.w3.org/1999/xlink"><clipPath id="a"><path d="m27 26h123.673v152.224h-123.673z"/></clipPath><circle cx="89" cy="89" fill="#fffac2" r="89"/><g clip-path="url(#a)"><path d="m150.672 105.726c0-.041 0-.077 0-.117 0-16.4004-6.515-32.1287-18.111-43.7253-11.597-11.5966-27.325-18.1115-43.7251-18.1115h-.1679v134.4518s21.832-1.224 32.832-4.724 29.172-19 29.172-19z" fill="#3d113c"/><path d="m27 105.609v.117 47.274s13.5 12 26.5 18 35.1684 7.224 35.1684 7.224v-134.4518c-16.3709.0445-32.0561 6.579-43.6164 18.1707-11.5602 11.5918-18.0521 27.2947-18.052 43.6661z" fill="#fc6719"/><path d="m75.2981 28.7888h-4.0206c-3.474.0068-6.8035 1.3915-9.2576 3.8504s-3.8324 5.791-3.8324 9.265h2.8806c3.2318-5.7707 8.2154-10.3639 14.23-13.1154z" fill="#fc6719"/><path d="m88.6741 28.6974v-2.6974h-.5089c-7.3765.0059-14.5098 2.6381-20.1221 7.425-5.6122 4.7869-9.3367 11.4158-10.506 18.699-.7121 4.4352-.4532 8.9721.7587 13.2975s3.3481 8.3363 6.261 11.7558 6.5331 6.1662 10.6108 8.0504c4.0778 1.8842 8.5158 2.8611 13.0078 2.8632h.5089v-2.6974-11.4105h-5.0538c-.7352 0-1.4631-.1448-2.1424-.4261-.6792-.2814-1.2963-.6938-1.8162-1.2136-.5199-.5199-.9322-1.137-1.2136-1.8163-.2813-.6792-.4261-1.4072-.4261-2.1423 0-.7352.1448-1.4632.4261-2.1424.2814-.6793.6937-1.2964 1.2136-1.8163.5199-.5198 1.137-.9322 1.8162-1.2136.6793-.2813 1.4072-.4261 2.1424-.4261h5.0538v-34.0889z" fill="#fdb98d"/><path d="m84.898 69.9777c.6718 0 1.2164-.5446 1.2164-1.2164s-.5446-1.2164-1.2164-1.2164-1.2164.5446-1.2164 1.2164.5446 1.2164 1.2164 1.2164z" fill="#fdb98d"/><path d="m75.6708 49.4419c-.1111-.0228-.2257-.0228-.3368 0z" fill="#000"/><path d="m115.281 41.9042h2.768c0-3.4775-1.381-6.8127-3.839-9.2722-2.459-2.4594-5.793-3.8418-9.271-3.8432h-3.888c6.014 2.7515 10.998 7.3447 14.23 13.1154z" fill="#3d113c"/><path d="m118.717 51.4471c-.609-3.354-1.77-6.5838-3.436-9.5579-2.651-4.7502-6.505-8.7191-11.175-11.5082-4.6708-2.789-9.993-4.2999-15.4322-4.381v36.8117h4.0716c1.4847 0 2.9087.5899 3.9586 1.6398s1.6397 2.4738 1.6397 3.9586-.5898 2.9087-1.6397 3.9586-2.4739 1.6398-3.9586 1.6398h-4.0716v14.0824c4.5081-.0738 8.9459-1.1286 13.0052-3.0911 4.059-1.9625 7.642-4.7856 10.5-8.2729 2.857-3.4873 4.921-7.5553 6.048-11.9209 1.126-4.3657 1.288-8.9243.474-13.3589zm-22.0935.8499v-.3817c0-.656.2606-1.2851.7245-1.749.4638-.4639 1.0929-.7245 1.749-.7245h1.583c.111-.0227.225-.0227.336 0h4.168v.3818c0 .3248-.064.6464-.188.9465-.125.3001-.307.5728-.537.8025-.229.2296-.502.4118-.802.5361s-.622.1883-.947.1883z" fill="#fc6719"/><path d="m92.7299 62.8118h-9.1101c-1.4847 0-2.9087.5898-3.9586 1.6397s-1.6397 2.4738-1.6397 3.9586.5898 2.9088 1.6397 3.9587 2.4739 1.6397 3.9586 1.6397h9.105c1.4848 0 2.9087-.5898 3.9586-1.6397s1.6398-2.4739 1.6398-3.9587-.5899-2.9087-1.6398-3.9586-2.4738-1.6397-3.9586-1.6397zm-7.8326 7.1659c-.2404.001-.4756-.0693-.6761-.2019s-.3572-.3216-.4503-.5432c-.0931-.2215-.1185-.4657-.073-.7018.0455-.236.16-.4532.3289-.6242s.3846-.2882.62-.3367c.2355-.0484.48-.0261.7027.0642.2227.0904.4137.2447.5488.4435s.2083.4332.2103.6735c.0013.1602-.029.319-.0892.4675-.0602.1484-.1491.2834-.2617.3974-.1125.114-.2465.2046-.3941.2666-.1477.0621-.3061.0944-.4663.0951zm6.5551 0c-.2407.003-.477-.0655-.6788-.1969s-.36-.3197-.4547-.541c-.0947-.2214-.1216-.4659-.0772-.7026.0444-.2366.158-.4548.3265-.6269.1684-.172.3842-.2902.6198-.3395.2357-.0493.4807-.0276.7041.0625.2233.09.4148.2443.5504.4433s.209.4337.2111.6745c.0027.3217-.1222.6315-.3473.8613-.2251.2299-.5321.3612-.8539.3653z" fill="#fffac2"/><path d="m91.4527 69.9777c.6718 0 1.2164-.5446 1.2164-1.2164s-.5446-1.2164-1.2164-1.2164-1.2164.5446-1.2164 1.2164.5446 1.2164 1.2164 1.2164z" fill="#fc6719"/><path d="m101.017 49.4419c-.112-.0228-.226-.0228-.337 0z" fill="#009688"/><path d="m75.6698 49.4421h-.3206c-.3498.0477-.6693.224-.8962.4945-.2268.2705-.3448.6159-.3308.9686.014.3528.1589.6877.4065.9394.2475.2518.58.4022.9325.4221h.0559c.3739.0187.7401-.111 1.0188-.3608.2788-.2499.4476-.5997.4697-.9734.0222-.3737-.1042-.741-.3515-1.022-.2473-.2811-.5955-.4531-.969-.4786z" fill="#3d113c"/><path d="m77.2537 49.4419h-1.5828c.3735.0255.7218.1975.9691.4786.2473.281.3736.6483.3514 1.022-.0221.3737-.1909.7235-.4697.9734-.2787.2498-.6449.3795-1.0187.3608h-.056c-.3645-.0055-.7128-.151-.973-.4063-.2602-.2552-.4122-.6008-.4247-.9651-.0124-.3643.1158-.7194.3579-.9918.2422-.2724.5799-.4413.9431-.4716h-4.1784v.3817c0 .656.2606 1.2851.7244 1.749.4639.4639 1.093.7245 1.749.7245h6.0819v-.3818c0-.656-.2606-1.2851-.7245-1.7489-.4638-.4639-1.093-.7245-1.749-.7245z" fill="#fff"/><path d="m101.015 49.4421c.35.0477.67.224.896.4945.227.2705.345.6159.331.9686-.014.3528-.159.6877-.406.9394-.248.2518-.58.4022-.933.4221h-.056c-.374.0187-.74-.111-1.0185-.3608-.2788-.2499-.4476-.5997-.4697-.9734-.0222-.3737.1042-.741.3515-1.022.2473-.2811.5957-.4531.9687-.4786h-1.5825c-.656 0-1.2851.2606-1.749.7244-.4639.4639-.7245 1.093-.7245 1.749v.3817h6.082c.656 0 1.285-.2605 1.749-.7244s.724-1.093.724-1.749v-.3817z" fill="#fff"/><path d="m101.016 49.4419h-.336c-.373.0255-.7213.1975-.9686.4786-.2473.281-.3736.6483-.3515 1.022s.191.7235.4697.9734c.2784.2498.6454.3795 1.0184.3608h.056c.353-.0199.685-.1703.933-.422.247-.2518.392-.5867.406-.9395.014-.3527-.104-.6981-.33-.9686-.227-.2705-.547-.4468-.897-.4945z" fill="#3d113c"/></g></svg>

<svg width="178" height="179" viewBox="0 0 178 179" fill="none" xmlns="http://www.w3.org/2000/svg">
<circle cx="89" cy="89" r="89" fill="#FFFAC2"/>
<g clip-path="url(#clip0_2833_6783)">
<path d="M150.672 105.726C150.672 105.685 150.672 105.649 150.672 105.609C150.672 89.2086 144.157 73.4803 132.561 61.8837C120.964 50.2871 105.236 43.7722 88.8359 43.7722H88.668V178.224C88.668 178.224 110.5 177 121.5 173.5C132.5 170 150.672 154.5 150.672 154.5L150.672 105.726Z" fill="#3D113C"/>
<path d="M27 105.609C27 105.649 27 105.685 27 105.726L27 153C27 153 40.5 165 53.5 171C66.5 177 88.6684 178.224 88.6684 178.224V43.7722C72.2975 43.8167 56.6123 50.3512 45.052 61.9429C33.4918 73.5347 26.9999 89.2376 27 105.609Z" fill="#FC6719"/>
<path d="M75.2981 28.7888H71.2775C67.8035 28.7956 64.474 30.1803 62.0199 32.6392C59.5658 35.0981 58.1875 38.4302 58.1875 41.9042H61.0681C64.2999 36.1335 69.2835 31.5403 75.2981 28.7888V28.7888Z" fill="#FC6719"/>
<path d="M88.6741 28.6974V26H88.1652C80.7887 26.0059 73.6554 28.6381 68.0431 33.425C62.4309 38.2119 58.7064 44.8408 57.5371 52.124C56.825 56.5592 57.0839 61.0961 58.2958 65.4215C59.5077 69.7469 61.6439 73.7578 64.5568 77.1773C67.4697 80.5968 71.0899 83.3435 75.1676 85.2277C79.2454 87.1119 83.6834 88.0888 88.1754 88.0909H88.6843V85.3935V73.983H83.6305C82.8953 73.983 82.1674 73.8382 81.4881 73.5569C80.8089 73.2755 80.1918 72.8631 79.6719 72.3433C79.152 71.8234 78.7397 71.2063 78.4583 70.527C78.177 69.8478 78.0322 69.1198 78.0322 68.3847C78.0322 67.6495 78.177 66.9215 78.4583 66.2423C78.7397 65.563 79.152 64.9459 79.6719 64.426C80.1918 63.9062 80.8089 63.4938 81.4881 63.2124C82.1674 62.9311 82.8953 62.7863 83.6305 62.7863H88.6843V28.6974H88.6741Z" fill="#FDB98D"/>
<path d="M84.898 69.9777C85.5698 69.9777 86.1144 69.4331 86.1144 68.7613C86.1144 68.0895 85.5698 67.5449 84.898 67.5449C84.2262 67.5449 83.6816 68.0895 83.6816 68.7613C83.6816 69.4331 84.2262 69.9777 84.898 69.9777Z" fill="#FDB98D"/>
<path d="M75.6708 49.4419C75.5597 49.4191 75.4451 49.4191 75.334 49.4419H75.6708Z" fill="black"/>
<path d="M115.281 41.9042H118.049C118.049 38.4267 116.668 35.0915 114.21 32.632C111.751 30.1726 108.417 28.7902 104.939 28.7888H101.051C107.065 31.5403 112.049 36.1335 115.281 41.9042V41.9042Z" fill="#3D113C"/>
<path d="M118.717 51.4471C118.108 48.0931 116.947 44.8633 115.281 41.8892C112.63 37.139 108.776 33.1701 104.106 30.381C99.4352 27.592 94.113 26.0811 88.6738 26V62.8117H92.7454C94.2301 62.8117 95.6541 63.4016 96.704 64.4515C97.7539 65.5014 98.3437 66.9253 98.3437 68.4101C98.3437 69.8949 97.7539 71.3188 96.704 72.3687C95.6541 73.4186 94.2301 74.0085 92.7454 74.0085H88.6738V88.0909C93.1819 88.0171 97.6197 86.9623 101.679 84.9998C105.738 83.0373 109.321 80.2142 112.179 76.7269C115.036 73.2396 117.1 69.1716 118.227 64.806C119.353 60.4403 119.515 55.8817 118.701 51.4471H118.717ZM96.6235 52.297V51.9153C96.6235 51.2593 96.8841 50.6302 97.348 50.1663C97.8118 49.7024 98.4409 49.4418 99.097 49.4418H100.68C100.791 49.4191 100.905 49.4191 101.016 49.4418H105.184V49.8236C105.184 50.1484 105.12 50.47 104.996 50.7701C104.871 51.0702 104.689 51.3429 104.459 51.5726C104.23 51.8022 103.957 51.9844 103.657 52.1087C103.357 52.233 103.035 52.297 102.71 52.297H96.6235Z" fill="#FC6719"/>
<path d="M92.7299 62.8118H83.6198C82.1351 62.8118 80.7111 63.4016 79.6612 64.4515C78.6113 65.5014 78.0215 66.9253 78.0215 68.4101C78.0215 69.8949 78.6113 71.3189 79.6612 72.3688C80.7111 73.4187 82.1351 74.0085 83.6198 74.0085H92.7248C94.2096 74.0085 95.6335 73.4187 96.6834 72.3688C97.7333 71.3189 98.3232 69.8949 98.3232 68.4101C98.3232 66.9253 97.7333 65.5014 96.6834 64.4515C95.6335 63.4016 94.2096 62.8118 92.7248 62.8118H92.7299ZM84.8973 69.9777C84.6569 69.9787 84.4217 69.9084 84.2212 69.7758C84.0207 69.6432 83.864 69.4542 83.7709 69.2326C83.6778 69.0111 83.6524 68.7669 83.6979 68.5308C83.7434 68.2948 83.8579 68.0776 84.0268 67.9066C84.1957 67.7356 84.4114 67.6184 84.6468 67.5699C84.8823 67.5215 85.1268 67.5438 85.3495 67.6341C85.5722 67.7245 85.7632 67.8788 85.8983 68.0776C86.0334 68.2764 86.1066 68.5108 86.1086 68.7511C86.1099 68.9113 86.0796 69.0701 86.0194 69.2186C85.9592 69.367 85.8703 69.502 85.7577 69.616C85.6452 69.73 85.5112 69.8206 85.3636 69.8826C85.2159 69.9447 85.0575 69.977 84.8973 69.9777V69.9777ZM91.4524 69.9777C91.2117 69.9807 90.9754 69.9122 90.7736 69.7808C90.5718 69.6494 90.4136 69.4611 90.3189 69.2398C90.2242 69.0184 90.1973 68.7739 90.2417 68.5372C90.2861 68.3006 90.3997 68.0824 90.5682 67.9103C90.7366 67.7383 90.9524 67.6201 91.188 67.5708C91.4237 67.5215 91.6687 67.5432 91.8921 67.6333C92.1154 67.7233 92.3069 67.8776 92.4425 68.0766C92.5781 68.2756 92.6515 68.5103 92.6536 68.7511C92.6563 69.0728 92.5314 69.3826 92.3063 69.6124C92.0812 69.8423 91.7742 69.9736 91.4524 69.9777V69.9777Z" fill="#FFFAC2"/>
<path d="M91.4527 69.9777C92.1245 69.9777 92.6691 69.4331 92.6691 68.7613C92.6691 68.0895 92.1245 67.5449 91.4527 67.5449C90.7809 67.5449 90.2363 68.0895 90.2363 68.7613C90.2363 69.4331 90.7809 69.9777 91.4527 69.9777Z" fill="#FC6719"/>
<path d="M101.017 49.4419C100.905 49.4191 100.791 49.4191 100.68 49.4419H101.017Z" fill="#009688"/>
<path d="M75.6698 49.4421H75.3492C74.9994 49.4898 74.6799 49.6661 74.453 49.9366C74.2262 50.2071 74.1082 50.5525 74.1222 50.9052C74.1362 51.258 74.2811 51.5929 74.5287 51.8446C74.7762 52.0964 75.1087 52.2468 75.4612 52.2667H75.5171C75.891 52.2854 76.2572 52.1557 76.5359 51.9059C76.8147 51.656 76.9835 51.3062 77.0056 50.9325C77.0278 50.5588 76.9014 50.1915 76.6541 49.9105C76.4068 49.6294 76.0586 49.4574 75.6851 49.4319L75.6698 49.4421Z" fill="#3D113C"/>
<path d="M77.2537 49.4419H75.6709C76.0444 49.4674 76.3927 49.6394 76.64 49.9205C76.8873 50.2015 77.0136 50.5688 76.9914 50.9425C76.9693 51.3162 76.8005 51.666 76.5217 51.9159C76.243 52.1657 75.8768 52.2954 75.503 52.2767H75.447C75.0825 52.2712 74.7342 52.1257 74.474 51.8704C74.2138 51.6152 74.0618 51.2696 74.0493 50.9053C74.0369 50.541 74.1651 50.1859 74.4072 49.9135C74.6494 49.6411 74.9871 49.4722 75.3503 49.4419H71.1719V49.8236C71.1719 50.4796 71.4325 51.1087 71.8963 51.5726C72.3602 52.0365 72.9893 52.2971 73.6453 52.2971H79.7272V51.9153C79.7272 51.2593 79.4666 50.6302 79.0027 50.1664C78.5389 49.7025 77.9097 49.4419 77.2537 49.4419Z" fill="white"/>
<path d="M101.015 49.4421C101.365 49.4898 101.685 49.6661 101.911 49.9366C102.138 50.2071 102.256 50.5525 102.242 50.9052C102.228 51.258 102.083 51.5929 101.836 51.8446C101.588 52.0964 101.256 52.2468 100.903 52.2667H100.847C100.473 52.2854 100.107 52.1557 99.8285 51.9059C99.5497 51.656 99.3809 51.3062 99.3588 50.9325C99.3366 50.5588 99.463 50.1915 99.7103 49.9105C99.9576 49.6294 100.306 49.4574 100.679 49.4319H99.0965C98.4405 49.4319 97.8114 49.6925 97.3475 50.1563C96.8836 50.6202 96.623 51.2493 96.623 51.9053V52.287H102.705C103.361 52.287 103.99 52.0265 104.454 51.5626C104.918 51.0987 105.178 50.4696 105.178 49.8136V49.4319L101.015 49.4421Z" fill="white"/>
<path d="M101.016 49.4419H100.68C100.307 49.4674 99.9587 49.6394 99.7114 49.9205C99.4641 50.2015 99.3378 50.5688 99.3599 50.9425C99.382 51.3162 99.5509 51.666 99.8296 51.9159C100.108 52.1657 100.475 52.2954 100.848 52.2767H100.904C101.257 52.2568 101.589 52.1064 101.837 51.8547C102.084 51.6029 102.229 51.268 102.243 50.9152C102.257 50.5625 102.139 50.2171 101.913 49.9466C101.686 49.6761 101.366 49.4998 101.016 49.4521V49.4419Z" fill="#3D113C"/>
</g>
<defs>
<clipPath id="clip0_2833_6783">
<rect width="123.673" height="152.224" fill="white" transform="translate(27 26)"/>
</clipPath>
</defs>
</svg>
